icons/footprint-line.svg

<svg xmlns="http://www.w3.org/2000/svg" width="24" height="24" fill="none"><g clip-path="url(#a)"><g><path fill="#121212" d="M4 18H9.5V19.25C9.5 19.9794 9.21027 20.6788 8.69454 21.1946C8.17882 21.7103 7.47935 22 6.75 22C6.02065 22 5.32118 21.7103 4.80546 21.1946C4.28973 20.6788 4 19.9794 4 19.25V18ZM8.058 14L8.103 13.868C8.87 11.762 9 11.37 9 11C9 10.25 8.797 9.35702 8.472 8.72702C8.23 8.25702 8.06 8.12002 8 8.12002C6.72 8.12002 5.5 9.48402 5.5 11C5.5 11.959 5.575 12.773 5.727 13.758L5.765 14H8.058ZM8 6.12002C10 6.12002 11 9.00002 11 11C11 12 10.5 13 10 14.5L9.5 16H4C4 15 3.5 13.5 3.5 11C3.5 8.50002 5.498 6.12002 8 6.12002ZM20.054 14.098L19.837 15.329C19.7104 16.0474 19.3035 16.686 18.7061 17.1044C18.1086 17.5228 17.3693 17.6867 16.651 17.56C15.9327 17.4334 15.2941 17.0266 14.8757 16.4291C14.4573 15.8316 14.2934 15.0924 14.42 14.374L14.638 13.144L20.054 14.098ZM19.004 9.85202C19.169 9.35202 19.305 8.95702 19.307 8.95202C19.509 8.29402 19.668 7.64902 19.792 6.94402C20.055 5.45202 19.09 3.89702 17.83 3.67402C17.771 3.66402 17.58 3.76902 17.26 4.18902C16.83 4.75402 16.476 5.59902 16.345 6.33602C16.287 6.66602 16.296 6.74102 16.615 8.59902C16.66 8.85502 16.697 9.08502 16.731 9.31602L16.751 9.45402L19.005 9.85202H19.004ZM18.178 1.70502C20.642 2.13902 22.196 4.82902 21.762 7.29102C21.328 9.75402 20.575 11.144 20.402 12.129L14.985 11.174L14.753 9.61002C14.521 8.04602 14.203 6.97402 14.376 5.99002C14.723 4.02002 16.208 1.35802 18.178 1.70502Z"/></g></g><defs><clipPath id="a"><rect width="24" height="24" fill="white"/></clipPath></defs></svg>

<svg width="24" height="24" fill="none" xmlns="http://www.w3.org/2000/svg"><g clip-path="url(#a)"><path d="M4 18h5.5v1.25a2.75 2.75 0 0 1-5.5 0V18Zm4.058-4 .045-.132C8.87 11.762 9 11.37 9 11c0-.75-.203-1.643-.528-2.273C8.23 8.257 8.06 8.12 8 8.12c-1.28 0-2.5 1.364-2.5 2.88 0 .959.075 1.773.227 2.758l.038.242h2.293ZM8 6.12c2 0 3 2.88 3 4.88 0 1-.5 2-1 3.5L9.5 16H4c0-1-.5-2.5-.5-5S5.498 6.12 8 6.12Zm12.054 7.978-.217 1.231a2.75 2.75 0 1 1-5.417-.955l.218-1.23 5.416.954Zm-1.05-4.246c.165-.5.301-.895.303-.9.202-.658.361-1.303.485-2.008.263-1.492-.702-3.047-1.962-3.27-.059-.01-.25.095-.57.515-.43.565-.784 1.41-.915 2.147-.058.33-.049.405.27 2.263.045.256.082.486.116.717l.02.138 2.254.398h-.001Zm-.826-8.147c2.464.434 4.018 3.124 3.584 5.586-.434 2.463-1.187 3.853-1.36 4.838l-5.417-.955-.232-1.564c-.232-1.564-.55-2.636-.377-3.62.347-1.97 1.832-4.632 3.802-4.285Z" /></g><defs><clipPath id="a"><path fill="#fff" d="M0 0h24v24H0z"/></clipPath></defs></svg>
